app/images/dist/youtube.svg

<svg width="40" height="40" viewBox="0 0 40 40" fill="none" xmlns="http://www.w3.org/2000/svg">
<path fill-rule="evenodd" clip-rule="evenodd" d="M20 40C8.95364 40 0 31.0455 0 20C0 8.95455 8.95364 0 20 0C31.0455 0 40 8.95455 40 20C40 31.0455 31.0455 40 20 40ZM20 1.35727C9.70364 1.35727 1.35727 9.70364 1.35727 20C1.35727 30.2955 9.70364 38.6427 20 38.6427C30.2955 38.6427 38.6427 30.2955 38.6427 20C38.6427 9.70364 30.2955 1.35727 20 1.35727ZM23.36 24.5455H16.64C13.3318 24.5455 12.7273 23.2755 12.7273 20.7755V18.3155C12.7273 17.0245 12.7273 16.0918 13.2373 15.4591C13.76 14.81 14.7455 14.5455 16.64 14.5455H23.36C25.2109 14.5455 26.1809 14.7936 26.7055 15.4036C27.2327 16.0164 27.2727 16.9545 27.2727 18.3155V20.7755C27.2727 22.3345 27.0209 23.2364 26.4309 23.7873C25.8545 24.3255 24.9655 24.5455 23.36 24.5455ZM22.0645 19.0718L19.0127 17.5236C18.8673 17.45 18.6927 17.4555 18.5527 17.5391C18.4127 17.6218 18.3273 17.7709 18.3273 17.9309V21.0364C18.3273 21.1973 18.4127 21.3455 18.5536 21.4291C18.6282 21.4727 18.7118 21.4955 18.7964 21.4955C18.8709 21.4955 18.9455 21.4782 19.0136 21.4427L22.0655 19.8845C22.22 19.8055 22.3173 19.6491 22.3173 19.4782C22.3173 19.3073 22.2191 19.1509 22.0645 19.0718Z" fill="white"/>
</svg>

<svg width="40" height="40" fill="none" xmlns="http://www.w3.org/2000/svg"><path fill-rule="evenodd" clip-rule="evenodd" d="M20 40C8.954 40 0 31.046 0 20 0 8.955 8.954 0 20 0s20 8.955 20 20c0 11.046-8.954 20-20 20zm0-38.643C9.704 1.357 1.357 9.704 1.357 20c0 10.296 8.347 18.643 18.643 18.643 10.296 0 18.643-8.348 18.643-18.643C38.643 9.704 30.295 1.357 20 1.357zm3.36 23.189h-6.72c-3.308 0-3.913-1.27-3.913-3.77v-2.46c0-1.291 0-2.224.51-2.857.523-.649 1.508-.913 3.403-.913h6.72c1.85 0 2.82.248 3.346.858.527.612.567 1.55.567 2.912v2.46c0 1.558-.252 2.46-.842 3.011-.576.539-1.466.759-3.071.759zm-1.296-5.474l-3.051-1.548a.478.478 0 00-.46.015.456.456 0 00-.226.392v3.105c0 .161.086.31.227.393a.48.48 0 00.46.014l3.052-1.559a.457.457 0 00.251-.406.458.458 0 00-.253-.406z" fill="#fff"/></svg>
